MultiMineSweeper/src/assets/img/Minesweeper_flag_blue.svg

<?xml version="1.0" encoding="UTF-8" standalone="no" ?>
<!DOCTYPE svg PUBLIC "-//W3C//DTD SVG 1.1//EN" "http://www.w3.org/Graphics/SVG/1.1/DTD/svg11.dtd">
<svg xmlns="http://www.w3.org/2000/svg" xmlns:xlink="http://www.w3.org/1999/xlink" version="1.1" width="1080" height="1080" viewBox="2.42 -2.26 1080 1080" xml:space="preserve">
<desc>Created with Fabric.js 5.2.4</desc>
<defs>
</defs>
<g transform="matrix(1 0 0 1 540 540)" id="3aee75dc-5c72-4a9c-bfae-02f8c73f63e0"  >
<rect style="stroke: none; stroke-width: 1; stroke-dasharray: none; stroke-linecap: butt; stroke-dashoffset: 0; stroke-linejoin: miter; stroke-miterlimit: 4; fill: rgb(255,255,255); fill-rule: nonzero; opacity: 1; visibility: hidden;" vector-effect="non-scaling-stroke"  x="-540" y="-540" rx="0" ry="0" width="1080" height="1080" />
</g>
<g transform="matrix(1 0 0 1 540 540)" id="0fdbe10d-726e-4102-8c4e-551d3dd0c710"  >
</g>
<g transform="matrix(1 0 0 1 540 540)"  >
<g style="" vector-effect="non-scaling-stroke"   >
		<g transform="matrix(1 0 0 1 0 0)"  >
<path style="stroke: none; stroke-width: 1; stroke-dasharray: none; stroke-linecap: butt; stroke-dashoffset: 0; stroke-linejoin: miter; stroke-miterlimit: 4; fill: rgb(253,252,253); fill-rule: nonzero; opacity: 1;" vector-effect="non-scaling-stroke"  transform=" translate(-38, -38)" d="M 0.009 0 L 75.991 0 C 75.996 0 76 0.004 76 0.009 L 76 75.99 C 76 75.996 75.996 76 75.991 76 L 0.009 76 C 0.004 76 0 75.996 0 75.99 L 0 0.009 C 0 0.004 0.004 0 0.009 0 z" stroke-linecap="round" />
</g>
		<g transform="matrix(1 0 0 1 0 0)"  >
<path style="stroke: none; stroke-width: 1; stroke-dasharray: none; stroke-linecap: butt; stroke-dashoffset: 0; stroke-linejoin: miter; stroke-miterlimit: 4; fill: rgb(117,117,117); fill-rule: nonzero; opacity: 1;" vector-effect="non-scaling-stroke"  transform=" translate(-38, -38)" d="M 75.99 0 C 75.995 0 76 0.005 76 0.01 L 76 75.991 C 76 75.996 75.995 76 75.99 76 L 0.009 76 C 0.004 76 0 75.996 0 75.991 L 75.99 0 z" stroke-linecap="round" />
</g>
		<g transform="matrix(1 0 0 1 0 0)" id="rect1311_65_"  >
<polygon style="stroke: none; stroke-width: 1; stroke-dasharray: none; stroke-linecap: butt; stroke-dashoffset: 0; stroke-linejoin: miter; stroke-miterlimit: 4; fill: rgb(185,185,185); fill-rule: nonzero; opacity: 1;" vector-effect="non-scaling-stroke"  points="-29.49,-29.5 29.49,-29.5 29.5,-29.49 29.5,29.49 29.49,29.5 -29.49,29.5 -29.5,29.49 -29.5,-29.49 " />
</g>
		<g transform="matrix(1 0 0 1 0 -2)"  >
<polygon style="stroke: none; stroke-width: 1; stroke-dasharray: none; stroke-linecap: butt; stroke-dashoffset: 0; stroke-linejoin: miter; stroke-miterlimit: 4; fill: rgb(0,0,0); fill-rule: nonzero; opacity: 1;" vector-effect="non-scaling-stroke"  points="-2,19.5 -2,-19.5 2,-19.5 2,19.5 -2,19.5 " />
</g>
		<g transform="matrix(1 0 0 1 -8.32 -11)"  >
<polygon style="stroke: none; stroke-width: 1; stroke-dasharray: none; stroke-linecap: butt; stroke-dashoffset: 0; stroke-linejoin: miter; stroke-miterlimit: 4; fill: rgb(255,0,0); fill-rule: nonzero; opacity: 1;" vector-effect="non-scaling-stroke"  points="10.31,-13.13 -10.31,0 10.31,13.13 " />
</g>
		<g transform="matrix(1 0 0 1 0 16.38)"  >
<rect style="stroke: none; stroke-width: 1; stroke-dasharray: none; stroke-linecap: butt; stroke-dashoffset: 0; stroke-linejoin: miter; stroke-miterlimit: 4; fill: rgb(0,0,0); fill-rule: nonzero; opacity: 1;" vector-effect="non-scaling-stroke"  x="-9.43" y="-2.75" rx="0" ry="0" width="18.86" height="5.5" />
</g>
		<g transform="matrix(1 0 0 1 -0.01 21.98)"  >
<rect style="stroke: none; stroke-width: 1; stroke-dasharray: none; stroke-linecap: butt; stroke-dashoffset: 0; stroke-linejoin: miter; stroke-miterlimit: 4; fill: rgb(0,0,0); fill-rule: nonzero; opacity: 1;" vector-effect="non-scaling-stroke"  x="-17.775" y="-3.52" rx="0" ry="0" width="35.55" height="7.04" />
</g>
</g>
</g>
<g transform="matrix(-0.36 0 0 -0.36 531.01 529.04)" id="d7c7d9b9-ae6c-4bab-8073-81f5a1344ee6"  >
<polygon style="stroke: rgb(0,0,0); stroke-width: 0; stroke-dasharray: none; stroke-linecap: butt; stroke-dashoffset: 0; stroke-linejoin: miter; stroke-miterlimit: 4; fill: rgb(12,0,220); fill-rule: nonzero; opacity: 1;" vector-effect="non-scaling-stroke"  points="-30.68,-37.41 30.68,0 -30.68,37.41 " />
</g>
</svg>

<?xml version="1.0"?>
<svg width="76" height="76" xmlns="http://www.w3.org/2000/svg" xmlns:svg="http://www.w3.org/2000/svg" enable-background="new 0 0 76 76" version="1.1" xml:space="preserve">
 <g class="layer">
  <title>Layer 1</title>
  <g id="svg_1">
   <g id="svg_2">
    <path d="m0.01,0l75.98,0c0.01,0 0.01,0 0.01,0.01l0,75.98c0,0.01 0,0.01 -0.01,0.01l-75.98,0c-0.01,0 -0.01,0 -0.01,-0.01l0,-75.98c0,-0.01 0,-0.01 0.01,-0.01z" fill="#FDFCFD" id="rect1313_65_"/>
    <path d="m75.99,0c0.01,0 0.01,0.01 0.01,0.01l0,75.98c0,0.01 0,0.01 -0.01,0.01l-75.98,0c-0.01,0 -0.01,0 -0.01,-0.01l75.99,-75.99z" fill="#757575" id="path1341_65_"/>
    <polygon fill="#B9B9B9" id="rect1311_65_" points="8.508,8.5 67.492,8.5 67.5,8.508 67.5,67.491 67.492,67.5 8.508,67.5     8.5,67.491 8.5,8.508   "/>
   </g>
   <g id="svg_3">
    <polygon id="svg_4" points="35.999,55.5 35.999,16.5 40,16.5 40,55.5 35.999,55.5   "/>
    <polygon fill="#FF0000" id="svg_5" points="40,13.875 19.375,27 40,40.125   "/>
    <rect height="5.5" id="svg_6" width="18.86" x="28.57" y="51.63"/>
    <rect height="7.04" id="svg_7" width="35.55" x="20.22" y="56.46"/>
   </g>
  </g>
  <path d="m17.46,36.81l12.37,-19.63l12.37,19.63z" fill="#0000ff" id="svg_10" stroke="#0000bf" transform="rotate(-90 29.8298 26.9915)"/>
 </g>
</svg>
